img/dec/dec-top.svg

<svg width="60" height="88" viewBox="0 0 60 88" fill="none" xmlns="http://www.w3.org/2000/svg">
<path d="M86.7692 64.3077C86.7692 66.177 88.3879 67.6923 90.3846 67.6923C92.3813 67.6923 94 66.177 94 64.3077C94 62.4384 92.3813 60.9231 90.3846 60.9231C88.3879 60.9231 86.7692 62.4384 86.7692 64.3077Z" fill="#0F2D95"/>
<path d="M86.7692 84.6154C86.7692 86.4847 88.3879 88 90.3846 88C92.3813 88 94 86.4847 94 84.6154C94 82.7461 92.3813 81.2308 90.3846 81.2308C88.3879 81.2308 86.7692 82.7461 86.7692 84.6154Z" fill="#0F2D95"/>
<path d="M65.0769 23.6923C65.0769 25.5616 66.6956 27.0769 68.6923 27.0769C70.689 27.0769 72.3077 25.5616 72.3077 23.6923C72.3077 21.823 70.689 20.3077 68.6923 20.3077C66.6956 20.3077 65.0769 21.823 65.0769 23.6923Z" fill="#0F2D95"/>
<path d="M65.0769 44C65.0769 45.8693 66.6956 47.3846 68.6923 47.3846C70.689 47.3846 72.3077 45.8693 72.3077 44C72.3077 42.1307 70.689 40.6154 68.6923 40.6154C66.6956 40.6154 65.0769 42.1307 65.0769 44Z" fill="#0F2D95"/>
<path d="M65.0769 64.3077C65.0769 66.177 66.6956 67.6923 68.6923 67.6923C70.689 67.6923 72.3077 66.177 72.3077 64.3077C72.3077 62.4384 70.689 60.9231 68.6923 60.9231C66.6956 60.9231 65.0769 62.4384 65.0769 64.3077Z" fill="#0F2D95"/>
<path d="M65.0769 84.6154C65.0769 86.4847 66.6956 88 68.6923 88C70.689 88 72.3077 86.4847 72.3077 84.6154C72.3077 82.7461 70.689 81.2308 68.6923 81.2308C66.6956 81.2308 65.0769 82.7461 65.0769 84.6154Z" fill="#0F2D95"/>
<path d="M43.3846 23.6923C43.3846 25.5616 45.0033 27.0769 47 27.0769C48.9967 27.0769 50.6154 25.5616 50.6154 23.6923C50.6154 21.823 48.9967 20.3077 47 20.3077C45.0033 20.3077 43.3846 21.823 43.3846 23.6923Z" fill="#0F2D95"/>
<path d="M43.3846 44C43.3846 45.8693 45.0033 47.3846 47 47.3846C48.9967 47.3846 50.6154 45.8693 50.6154 44C50.6154 42.1307 48.9967 40.6154 47 40.6154C45.0033 40.6154 43.3846 42.1307 43.3846 44Z" fill="#0F2D95"/>
<path d="M43.3846 64.3077C43.3846 66.177 45.0033 67.6923 47 67.6923C48.9967 67.6923 50.6154 66.177 50.6154 64.3077C50.6154 62.4384 48.9967 60.9231 47 60.9231C45.0033 60.9231 43.3846 62.4384 43.3846 64.3077Z" fill="#0F2D95"/>
<path d="M43.3846 84.6154C43.3846 86.4847 45.0033 88 47 88C48.9967 88 50.6154 86.4847 50.6154 84.6154C50.6154 82.7461 48.9967 81.2308 47 81.2308C45.0033 81.2308 43.3846 82.7461 43.3846 84.6154Z" fill="#0F2D95"/>
<path d="M21.6923 3.38462C21.6923 5.25389 23.311 6.76923 25.3077 6.76923C27.3044 6.76923 28.9231 5.25389 28.9231 3.38462C28.9231 1.51534 27.3044 0 25.3077 0C23.311 0 21.6923 1.51534 21.6923 3.38462Z" fill="#0F2D95"/>
<path d="M21.6923 23.6923C21.6923 25.5616 23.311 27.0769 25.3077 27.0769C27.3044 27.0769 28.9231 25.5616 28.9231 23.6923C28.9231 21.823 27.3044 20.3077 25.3077 20.3077C23.311 20.3077 21.6923 21.823 21.6923 23.6923Z" fill="#0F2D95"/>
<path d="M21.6923 44C21.6923 45.8693 23.311 47.3846 25.3077 47.3846C27.3044 47.3846 28.9231 45.8693 28.9231 44C28.9231 42.1307 27.3044 40.6154 25.3077 40.6154C23.311 40.6154 21.6923 42.1307 21.6923 44Z" fill="#0F2D95"/>
<path d="M21.6923 64.3077C21.6923 66.177 23.311 67.6923 25.3077 67.6923C27.3044 67.6923 28.9231 66.177 28.9231 64.3077C28.9231 62.4384 27.3044 60.9231 25.3077 60.9231C23.311 60.9231 21.6923 62.4384 21.6923 64.3077Z" fill="#0F2D95"/>
<path d="M21.6923 84.6154C21.6923 86.4847 23.311 88 25.3077 88C27.3044 88 28.9231 86.4847 28.9231 84.6154C28.9231 82.7461 27.3044 81.2308 25.3077 81.2308C23.311 81.2308 21.6923 82.7461 21.6923 84.6154Z" fill="#0F2D95"/>
<path d="M0 3.38462C0 5.25389 1.61866 6.76923 3.61539 6.76923C5.61211 6.76923 7.23077 5.25389 7.23077 3.38462C7.23077 1.51534 5.61211 0 3.61539 0C1.61866 0 0 1.51534 0 3.38462Z" fill="#0F2D95"/>
<path d="M0 23.6923C0 25.5616 1.61866 27.0769 3.61539 27.0769C5.61211 27.0769 7.23077 25.5616 7.23077 23.6923C7.23077 21.823 5.61211 20.3077 3.61539 20.3077C1.61866 20.3077 0 21.823 0 23.6923Z" fill="#0F2D95"/>
<path d="M0 44C0 45.8693 1.61866 47.3846 3.61539 47.3846C5.61211 47.3846 7.23077 45.8693 7.23077 44C7.23077 42.1307 5.61211 40.6154 3.61539 40.6154C1.61866 40.6154 0 42.1307 0 44Z" fill="#0F2D95"/>
<path d="M0 64.3077C0 66.177 1.61866 67.6923 3.61539 67.6923C5.61211 67.6923 7.23077 66.177 7.23077 64.3077C7.23077 62.4384 5.61211 60.9231 3.61539 60.9231C1.61866 60.9231 0 62.4384 0 64.3077Z" fill="#0F2D95"/>
<path d="M0 84.6154C0 86.4847 1.61866 88 3.61539 88C5.61211 88 7.23077 86.4847 7.23077 84.6154C7.23077 82.7461 5.61211 81.2308 3.61539 81.2308C1.61866 81.2308 0 82.7461 0 84.6154Z" fill="#0F2D95"/>
</svg>

<svg width="60" height="88" fill="none" xmlns="http://www.w3.org/2000/svg"><path d="M86.77 64.308c0 1.869 1.618 3.384 3.615 3.384 1.996 0 3.615-1.515 3.615-3.384 0-1.87-1.619-3.385-3.615-3.385-1.997 0-3.616 1.515-3.616 3.385ZM86.77 84.615c0 1.87 1.618 3.385 3.615 3.385C92.38 88 94 86.485 94 84.615c0-1.869-1.619-3.384-3.615-3.384-1.997 0-3.616 1.515-3.616 3.384ZM65.077 23.692c0 1.87 1.619 3.385 3.615 3.385 1.997 0 3.616-1.515 3.616-3.385 0-1.869-1.619-3.384-3.616-3.384-1.996 0-3.615 1.515-3.615 3.384ZM65.077 44c0 1.87 1.619 3.385 3.615 3.385 1.997 0 3.616-1.516 3.616-3.385 0-1.87-1.619-3.385-3.616-3.385-1.996 0-3.615 1.516-3.615 3.385ZM65.077 64.308c0 1.869 1.619 3.384 3.615 3.384 1.997 0 3.616-1.515 3.616-3.384 0-1.87-1.619-3.385-3.616-3.385-1.996 0-3.615 1.515-3.615 3.385ZM65.077 84.615c0 1.87 1.619 3.385 3.615 3.385 1.997 0 3.616-1.515 3.616-3.385 0-1.869-1.619-3.384-3.616-3.384-1.996 0-3.615 1.515-3.615 3.384ZM43.385 23.692c0 1.87 1.618 3.385 3.615 3.385s3.615-1.515 3.615-3.385c0-1.869-1.618-3.384-3.615-3.384s-3.615 1.515-3.615 3.384ZM43.385 44c0 1.87 1.618 3.385 3.615 3.385s3.615-1.516 3.615-3.385c0-1.87-1.618-3.385-3.615-3.385S43.385 42.131 43.385 44ZM43.385 64.308c0 1.869 1.618 3.384 3.615 3.384s3.615-1.515 3.615-3.384c0-1.87-1.618-3.385-3.615-3.385s-3.615 1.515-3.615 3.385ZM43.385 84.615C43.385 86.485 45.003 88 47 88s3.615-1.515 3.615-3.385c0-1.869-1.618-3.384-3.615-3.384s-3.615 1.515-3.615 3.384ZM21.692 3.385c0 1.869 1.619 3.384 3.616 3.384 1.996 0 3.615-1.515 3.615-3.384 0-1.87-1.619-3.385-3.615-3.385-1.997 0-3.616 1.515-3.616 3.385ZM21.692 23.692c0 1.87 1.619 3.385 3.616 3.385 1.996 0 3.615-1.515 3.615-3.385 0-1.869-1.619-3.384-3.615-3.384-1.997 0-3.616 1.515-3.616 3.384ZM21.692 44c0 1.87 1.619 3.385 3.616 3.385 1.996 0 3.615-1.516 3.615-3.385 0-1.87-1.619-3.385-3.615-3.385-1.997 0-3.616 1.516-3.616 3.385ZM21.692 64.308c0 1.869 1.619 3.384 3.616 3.384 1.996 0 3.615-1.515 3.615-3.384 0-1.87-1.619-3.385-3.615-3.385-1.997 0-3.616 1.515-3.616 3.385ZM21.692 84.615c0 1.87 1.619 3.385 3.616 3.385 1.996 0 3.615-1.515 3.615-3.385 0-1.869-1.619-3.384-3.615-3.384-1.997 0-3.616 1.515-3.616 3.384ZM0 3.385c0 1.869 1.619 3.384 3.615 3.384 1.997 0 3.616-1.515 3.616-3.384C7.23 1.515 5.612 0 3.615 0 1.62 0 0 1.515 0 3.385ZM0 23.692c0 1.87 1.619 3.385 3.615 3.385 1.997 0 3.616-1.515 3.616-3.385 0-1.869-1.619-3.384-3.616-3.384C1.62 20.308 0 21.823 0 23.692ZM0 44c0 1.87 1.619 3.385 3.615 3.385 1.997 0 3.616-1.516 3.616-3.385 0-1.87-1.619-3.385-3.616-3.385C1.62 40.615 0 42.131 0 44ZM0 64.308c0 1.869 1.619 3.384 3.615 3.384 1.997 0 3.616-1.515 3.616-3.384 0-1.87-1.619-3.385-3.616-3.385C1.62 60.923 0 62.438 0 64.308ZM0 84.615C0 86.485 1.619 88 3.615 88c1.997 0 3.616-1.515 3.616-3.385 0-1.869-1.619-3.384-3.616-3.384C1.62 81.23 0 82.746 0 84.615Z" fill="#0F2D95"/></svg>
